X:1
T:O Traurigkeit, O Herzensleid
A:Wuerzburg
B:COMPA Geistl.Volkslieder Bsp.270
N:1630
Z:abc transcription Simon Wascher
F:http://simonwascher.info/
M:4/4
L:1/4
K:Am
e2AA | B3^G | AA^G2 | zeee |
fed2 | c2Bc | eedc | B2AB |
cdB2 | A4 |]
